color/icn.svg

<!-- Generated by IcoMoon.io -->
<svg version="1.1" xmlns="http://www.w3.org/2000/svg" width="32" height="32" viewBox="0 0 32 32">
<title>icn</title>
<path fill="#4c6f8c" d="M32 16c0 8.837-7.163 16-16 16s-16-7.163-16-16c0-8.837 7.163-16 16-16s16 7.163 16 16z"></path>
<path fill="#fff" d="M20.833 7h2.667v18h-2.667v-18zM16.389 16h2.667v9h-2.667v-9zM11.944 11.5h2.667v13.5h-2.667v-13.5zM7.5 20.5h2.667v4.5h-2.667v-4.5z"></path>
</svg>

<svg xmlns="http://www.w3.org/2000/svg" width="32" height="32"><g fill="none" fill-rule="evenodd"><circle cx="16" cy="16" r="16" fill="#4C6F8C"/><path fill="#FFF" fill-rule="nonzero" d="M20.833 7H23.5v18h-2.667V7zm-4.444 9h2.667v9h-2.667v-9zm-4.445-4.5h2.667V25h-2.667V11.5zm-4.444 9h2.667V25H7.5v-4.5z"/></g></svg>
